; LightBurn 1.2.01
; GRBL device profile, absolute coords
; Bounds: X0 Y0.05 to X76.91 Y27.39
G00 G17 G40 G21 G54
G90
M4
M126P3
M127P254
M128P900
; Scan @ 12000 mm/min, 80% power
M8
G0 X0.188Y0.05
; Layer Speed 200 mm/s
G91
G1 X5F12000S80
G1 X1S0
G1 X5S160
G1 X1S0
G1 X5S240
G1 X1S0
G1 X5S320
G1 X1S0
G1 X5S400
G1 X1S0
G1 X5S480
G1 X1S0
G1 X5S560
G1 X1S0
G1 X5S640
G1 X1S0
G1 X5S720
G1 X1S0
G1 X5S800
G1 Y0.1S0
G1 X-5S800
G1 X-1S0
G1 X-5S720
G1 X-1S0
G1 X-5S640
G1 X-1S0
G1 X-5S560
G1 X-1S0
G1 X-5S480
G1 X-1S0
G1 X-5S400
G1 X-1S0
G1 X-5S320
G1 X-1S0
G1 X-5S240
G1 X-1S0
G1 X-5S160
G1 X-1S0
G1 X-5S80
G1 Y0.1S0
G1 X5S80
G1 X1S0
G1 X5S160
G1 X1S0
G1 X5S240
G1 X1S0
G1 X5S320
G1 X1S0
G1 X5S400
G1 X1S0
G1 X5S480
G1 X1S0
G1 X5S560
G1 X1S0
G1 X5S640
G1 X1S0
G1 X5S720
G1 X1S0
G1 X5S800
G1 Y0.1S0
G1 X-5S800
G1 X-1S0
G1 X-5S720
G1 X-1S0
G1 X-5S640
G1 X-1S0
G1 X-5S560
G1 X-1S0
G1 X-5S480
G1 X-1S0
G1 X-5S400
G1 X-1S0
G1 X-5S320
G1 X-1S0
G1 X-5S240
G1 X-1S0
G1 X-5S160
G1 X-1S0
G1 X-5S80
G1 Y0.1S0
G1 X5S80
G1 X1S0
G1 X5S160
G1 X1S0
G1 X5S240
G1 X1S0
G1 X5S320
G1 X1S0
G1 X5S400
G1 X1S0
G1 X5S480
G1 X1S0
G1 X5S560
G1 X1S0
G1 X5S640
G1 X1S0
G1 X5S720
G1 X1S0
G1 X5S800
G1 Y0.1S0
G1 X-5S800
G1 X-1S0
G1 X-5S720
G1 X-1S0
G1 X-5S640
G1 X-1S0
G1 X-5S560
G1 X-1S0
G1 X-5S480
G1 X-1S0
G1 X-5S400
G1 X-1S0
G1 X-5S320
G1 X-1S0
G1 X-5S240
G1 X-1S0
G1 X-5S160
G1 X-1S0
G1 X-5S80
G1 Y0.1S0
G1 X5S80
G1 X1S0
G1 X5S160
G1 X1S0
G1 X5S240
G1 X1S0
G1 X5S320
G1 X1S0
G1 X5S400
G1 X1S0
G1 X5S480
G1 X1S0
G1 X5S560
G1 X1S0
G1 X5S640
G1 X1S0
G1 X5S720
G1 X1S0
G1 X5S800
G1 Y0.1S0
G1 X-5S800
G1 X-1S0
G1 X-5S720
G1 X-1S0
G1 X-5S640
G1 X-1S0
G1 X-5S560
G1 X-1S0
G1 X-5S480
G1 X-1S0
G1 X-5S400
G1 X-1S0
G1 X-5S320
G1 X-1S0
G1 X-5S240
G1 X-1S0
G1 X-5S160
G1 X-1S0
G1 X-5S80
G1 Y0.1S0
G1 X5S80
G1 X1S0
G1 X5S160
G1 X1S0
G1 X5S240
G1 X1S0
G1 X5S320
G1 X1S0
G1 X5S400
G1 X1S0
G1 X5S480
G1 X1S0
G1 X5S560
G1 X1S0
G1 X5S640
G1 X1S0
G1 X5S720
G1 X1S0
G1 X5S800
G1 Y0.1S0
G1 X-5S800
G1 X-1S0
G1 X-5S720
G1 X-1S0
G1 X-5S640
G1 X-1S0
G1 X-5S560
G1 X-1S0
G1 X-5S480
G1 X-1S0
G1 X-5S400
G1 X-1S0
G1 X-5S320
G1 X-1S0
G1 X-5S240
G1 X-1S0
G1 X-5S160
G1 X-1S0
G1 X-5S80
G1 Y0.1S0
G1 X5S80
G1 X1S0
G1 X5S160
G1 X1S0
G1 X5S240
G1 X1S0
G1 X5S320
G1 X1S0
G1 X5S400
G1 X1S0
G1 X5S480
G1 X1S0
G1 X5S560
G1 X1S0
G1 X5S640
G1 X1S0
G1 X5S720
G1 X1S0
G1 X5S800
G1 Y0.1S0
G1 X-5S800
G1 X-1S0
G1 X-5S720
G1 X-1S0
G1 X-5S640
G1 X-1S0
G1 X-5S560
G1 X-1S0
G1 X-5S480
G1 X-1S0
G1 X-5S400
G1 X-1S0
G1 X-5S320
G1 X-1S0
G1 X-5S240
G1 X-1S0
G1 X-5S160
G1 X-1S0
G1 X-5S80
G1 Y0.1S0
G1 X5S80
G1 X1S0
G1 X5S160
G1 X1S0
G1 X5S240
G1 X1S0
G1 X5S320
G1 X1S0
G1 X5S400
G1 X1S0
G1 X5S480
G1 X1S0
G1 X5S560
G1 X1S0
G1 X5S640
G1 X1S0
G1 X5S720
G1 X1S0
G1 X5S800
G1 Y0.1S0
G1 X-5S800
G1 X-1S0
G1 X-5S720
G1 X-1S0
G1 X-5S640
G1 X-1S0
G1 X-5S560
G1 X-1S0
G1 X-5S480
G1 X-1S0
G1 X-5S400
G1 X-1S0
G1 X-5S320
G1 X-1S0
G1 X-5S240
G1 X-1S0
G1 X-5S160
G1 X-1S0
G1 X-5S80
G1 Y0.1S0
G1 X5S80
G1 X1S0
G1 X5S160
G1 X1S0
G1 X5S240
G1 X1S0
G1 X5S320
G1 X1S0
G1 X5S400
G1 X1S0
G1 X5S480
G1 X1S0
G1 X5S560
G1 X1S0
G1 X5S640
G1 X1S0
G1 X5S720
G1 X1S0
G1 X5S800
G1 Y0.1S0
G1 X-5S800
G1 X-1S0
G1 X-5S720
G1 X-1S0
G1 X-5S640
G1 X-1S0
G1 X-5S560
G1 X-1S0
G1 X-5S480
G1 X-1S0
G1 X-5S400
G1 X-1S0
G1 X-5S320
G1 X-1S0
G1 X-5S240
G1 X-1S0
G1 X-5S160
G1 X-1S0
G1 X-5S80
G1 Y0.1S0
G1 X5S80
G1 X1S0
G1 X5S160
G1 X1S0
G1 X5S240
G1 X1S0
G1 X5S320
G1 X1S0
G1 X5S400
G1 X1S0
G1 X5S480
G1 X1S0
G1 X5S560
G1 X1S0
G1 X5S640
G1 X1S0
G1 X5S720
G1 X1S0
G1 X5S800
G1 Y0.1S0
G1 X-5S800
G1 X-1S0
G1 X-5S720
G1 X-1S0
G1 X-5S640
G1 X-1S0
G1 X-5S560
G1 X-1S0
G1 X-5S480
G1 X-1S0
G1 X-5S400
G1 X-1S0
G1 X-5S320
G1 X-1S0
G1 X-5S240
G1 X-1S0
G1 X-5S160
G1 X-1S0
G1 X-5S80
G1 Y0.1S0
G1 X5S80
G1 X1S0
G1 X5S160
G1 X1S0
G1 X5S240
G1 X1S0
G1 X5S320
G1 X1S0
G1 X5S400
G1 X1S0
G1 X5S480
G1 X1S0
G1 X5S560
G1 X1S0
G1 X5S640
G1 X1S0
G1 X5S720
G1 X1S0
G1 X5S800
G1 Y0.1S0
G1 X-5S800
G1 X-1S0
G1 X-5S720
G1 X-1S0
G1 X-5S640
G1 X-1S0
G1 X-5S560
G1 X-1S0
G1 X-5S480
G1 X-1S0
G1 X-5S400
G1 X-1S0
G1 X-5S320
G1 X-1S0
G1 X-5S240
G1 X-1S0
G1 X-5S160
G1 X-1S0
G1 X-5S80
G1 Y0.1S0
G1 X5S80
G1 X1S0
G1 X5S160
G1 X1S0
G1 X5S240
G1 X1S0
G1 X5S320
G1 X1S0
G1 X5S400
G1 X1S0
G1 X5S480
G1 X1S0
G1 X5S560
G1 X1S0
G1 X5S640
G1 X1S0
G1 X5S720
G1 X1S0
G1 X5S800
G1 Y0.1S0
G1 X-5S800
G1 X-1S0
G1 X-5S720
G1 X-1S0
G1 X-5S640
G1 X-1S0
G1 X-5S560
G1 X-1S0
G1 X-5S480
G1 X-1S0
G1 X-5S400
G1 X-1S0
G1 X-5S320
G1 X-1S0
G1 X-5S240
G1 X-1S0
G1 X-5S160
G1 X-1S0
G1 X-5S80
G1 Y0.1S0
G1 X5S80
G1 X1S0
G1 X5S160
G1 X1S0
G1 X5S240
G1 X1S0
G1 X5S320
G1 X1S0
G1 X5S400
G1 X1S0
G1 X5S480
G1 X1S0
G1 X5S560
G1 X1S0
G1 X5S640
G1 X1S0
G1 X5S720
G1 X1S0
G1 X5S800
G1 Y0.1S0
G1 X-5S800
G1 X-1S0
G1 X-5S720
G1 X-1S0
G1 X-5S640
G1 X-1S0
G1 X-5S560
G1 X-1S0
G1 X-5S480
G1 X-1S0
G1 X-5S400
G1 X-1S0
G1 X-5S320
G1 X-1S0
G1 X-5S240
G1 X-1S0
G1 X-5S160
G1 X-1S0
G1 X-5S80
G1 Y0.1S0
G1 X5S80
G1 X1S0
G1 X5S160
G1 X1S0
G1 X5S240
G1 X1S0
G1 X5S320
G1 X1S0
G1 X5S400
G1 X1S0
G1 X5S480
G1 X1S0
G1 X5S560
G1 X1S0
G1 X5S640
G1 X1S0
G1 X5S720
G1 X1S0
G1 X5S800
G1 Y0.1S0
G1 X-5S800
G1 X-1S0
G1 X-5S720
G1 X-1S0
G1 X-5S640
G1 X-1S0
G1 X-5S560
G1 X-1S0
G1 X-5S480
G1 X-1S0
G1 X-5S400
G1 X-1S0
G1 X-5S320
G1 X-1S0
G1 X-5S240
G1 X-1S0
G1 X-5S160
G1 X-1S0
G1 X-5S80
G1 Y0.1S0
G1 X5S80
G1 X1S0
G1 X5S160
G1 X1S0
G1 X5S240
G1 X1S0
G1 X5S320
G1 X1S0
G1 X5S400
G1 X1S0
G1 X5S480
G1 X1S0
G1 X5S560
G1 X1S0
G1 X5S640
G1 X1S0
G1 X5S720
G1 X1S0
G1 X5S800
G1 Y0.1S0
G1 X-5S800
G1 X-1S0
G1 X-5S720
G1 X-1S0
G1 X-5S640
G1 X-1S0
G1 X-5S560
G1 X-1S0
G1 X-5S480
G1 X-1S0
G1 X-5S400
G1 X-1S0
G1 X-5S320
G1 X-1S0
G1 X-5S240
G1 X-1S0
G1 X-5S160
G1 X-1S0
G1 X-5S80
G1 Y0.1S0
G1 X5S80
G1 X1S0
G1 X5S160
G1 X1S0
G1 X5S240
G1 X1S0
G1 X5S320
G1 X1S0
G1 X5S400
G1 X1S0
G1 X5S480
G1 X1S0
G1 X5S560
G1 X1S0
G1 X5S640
G1 X1S0
G1 X5S720
G1 X1S0
G1 X5S800
G1 Y0.1S0
G1 X-5S800
G1 X-1S0
G1 X-5S720
G1 X-1S0
G1 X-5S640
G1 X-1S0
G1 X-5S560
G1 X-1S0
G1 X-5S480
G1 X-1S0
G1 X-5S400
G1 X-1S0
G1 X-5S320
G1 X-1S0
G1 X-5S240
G1 X-1S0
G1 X-5S160
G1 X-1S0
G1 X-5S80
G1 Y0.1S0
G1 X5S80
G1 X1S0
G1 X5S160
G1 X1S0
G1 X5S240
G1 X1S0
G1 X5S320
G1 X1S0
G1 X5S400
G1 X1S0
G1 X5S480
G1 X1S0
G1 X5S560
G1 X1S0
G1 X5S640
G1 X1S0
G1 X5S720
G1 X1S0
G1 X5S800
G1 Y0.1S0
G1 X-5S800
G1 X-1S0
G1 X-5S720
G1 X-1S0
G1 X-5S640
G1 X-1S0
G1 X-5S560
G1 X-1S0
G1 X-5S480
G1 X-1S0
G1 X-5S400
G1 X-1S0
G1 X-5S320
G1 X-1S0
G1 X-5S240
G1 X-1S0
G1 X-5S160
G1 X-1S0
G1 X-5S80
G1 Y0.1S0
G1 X5S80
G1 X1S0
G1 X5S160
G1 X1S0
G1 X5S240
G1 X1S0
G1 X5S320
G1 X1S0
G1 X5S400
G1 X1S0
G1 X5S480
G1 X1S0
G1 X5S560
G1 X1S0
G1 X5S640
G1 X1S0
G1 X5S720
G1 X1S0
G1 X5S800
G1 Y0.1S0
G1 X-5S800
G1 X-1S0
G1 X-5S720
G1 X-1S0
G1 X-5S640
G1 X-1S0
G1 X-5S560
G1 X-1S0
G1 X-5S480
G1 X-1S0
G1 X-5S400
G1 X-1S0
G1 X-5S320
G1 X-1S0
G1 X-5S240
G1 X-1S0
G1 X-5S160
G1 X-1S0
G1 X-5S80
G1 Y0.1S0
G1 X5S80
G1 X1S0
G1 X5S160
G1 X1S0
G1 X5S240
G1 X1S0
G1 X5S320
G1 X1S0
G1 X5S400
G1 X1S0
G1 X5S480
G1 X1S0
G1 X5S560
G1 X1S0
G1 X5S640
G1 X1S0
G1 X5S720
G1 X1S0
G1 X5S800
G1 Y0.1S0
G1 X-5S800
G1 X-1S0
G1 X-5S720
G1 X-1S0
G1 X-5S640
G1 X-1S0
G1 X-5S560
G1 X-1S0
G1 X-5S480
G1 X-1S0
G1 X-5S400
G1 X-1S0
G1 X-5S320
G1 X-1S0
G1 X-5S240
G1 X-1S0
G1 X-5S160
G1 X-1S0
G1 X-5S80
G1 Y0.1S0
G1 X5S80
G1 X1S0
G1 X5S160
G1 X1S0
G1 X5S240
G1 X1S0
G1 X5S320
G1 X1S0
G1 X5S400
G1 X1S0
G1 X5S480
G1 X1S0
G1 X5S560
G1 X1S0
G1 X5S640
G1 X1S0
G1 X5S720
G1 X1S0
G1 X5S800
G1 Y0.1S0
G1 X-5S800
G1 X-1S0
G1 X-5S720
G1 X-1S0
G1 X-5S640
G1 X-1S0
G1 X-5S560
G1 X-1S0
G1 X-5S480
G1 X-1S0
G1 X-5S400
G1 X-1S0
G1 X-5S320
G1 X-1S0
G1 X-5S240
G1 X-1S0
G1 X-5S160
G1 X-1S0
G1 X-5S80
G1 Y0.1S0
G1 X5S80
G1 X1S0
G1 X5S160
G1 X1S0
G1 X5S240
G1 X1S0
G1 X5S320
G1 X1S0
G1 X5S400
G1 X1S0
G1 X5S480
G1 X1S0
G1 X5S560
G1 X1S0
G1 X5S640
G1 X1S0
G1 X5S720
G1 X1S0
G1 X5S800
G1 Y0.1S0
G1 X-5S800
G1 X-1S0
G1 X-5S720
G1 X-1S0
G1 X-5S640
G1 X-1S0
G1 X-5S560
G1 X-1S0
G1 X-5S480
G1 X-1S0
G1 X-5S400
G1 X-1S0
G1 X-5S320
G1 X-1S0
G1 X-5S240
G1 X-1S0
G1 X-5S160
G1 X-1S0
G1 X-5S80
G1 Y0.1S0
G1 X5S80
G1 X1S0
G1 X5S160
G1 X1S0
G1 X5S240
G1 X1S0
G1 X5S320
G1 X1S0
G1 X5S400
G1 X1S0
G1 X5S480
G1 X1S0
G1 X5S560
G1 X1S0
G1 X5S640
G1 X1S0
G1 X5S720
G1 X1S0
G1 X5S800
G1 Y0.1S0
G1 X-5S800
G1 X-1S0
G1 X-5S720
G1 X-1S0
G1 X-5S640
G1 X-1S0
G1 X-5S560
G1 X-1S0
G1 X-5S480
G1 X-1S0
G1 X-5S400
G1 X-1S0
G1 X-5S320
G1 X-1S0
G1 X-5S240
G1 X-1S0
G1 X-5S160
G1 X-1S0
G1 X-5S80
G1 Y0.1S0
G1 X5S80
G1 X1S0
G1 X5S160
G1 X1S0
G1 X5S240
G1 X1S0
G1 X5S320
G1 X1S0
G1 X5S400
G1 X1S0
G1 X5S480
G1 X1S0
G1 X5S560
G1 X1S0
G1 X5S640
G1 X1S0
G1 X5S720
G1 X1S0
G1 X5S800
G1 Y0.1S0
G1 X-5S800
G1 X-1S0
G1 X-5S720
G1 X-1S0
G1 X-5S640
G1 X-1S0
G1 X-5S560
G1 X-1S0
G1 X-5S480
G1 X-1S0
G1 X-5S400
G1 X-1S0
G1 X-5S320
G1 X-1S0
G1 X-5S240
G1 X-1S0
G1 X-5S160
G1 X-1S0
G1 X-5S80
G1 Y0.1S0
G1 X5S80
G1 X1S0
G1 X5S160
G1 X1S0
G1 X5S240
G1 X1S0
G1 X5S320
G1 X1S0
G1 X5S400
G1 X1S0
G1 X5S480
G1 X1S0
G1 X5S560
G1 X1S0
G1 X5S640
G1 X1S0
G1 X5S720
G1 X1S0
G1 X5S800
G1 Y0.1S0
G1 X-5S800
G1 X-1S0
G1 X-5S720
G1 X-1S0
G1 X-5S640
G1 X-1S0
G1 X-5S560
G1 X-1S0
G1 X-5S480
G1 X-1S0
G1 X-5S400
G1 X-1S0
G1 X-5S320
G1 X-1S0
G1 X-5S240
G1 X-1S0
G1 X-5S160
G1 X-1S0
G1 X-5S80
G1 Y0.1S0
G1 X5S80
G1 X1S0
G1 X5S160
G1 X1S0
G1 X5S240
G1 X1S0
G1 X5S320
G1 X1S0
G1 X5S400
G1 X1S0
G1 X5S480
G1 X1S0
G1 X5S560
G1 X1S0
G1 X5S640
G1 X1S0
G1 X5S720
G1 X1S0
G1 X5S800
G1 Y0.1S0
G1 X-5S800
G1 X-1S0
G1 X-5S720
G1 X-1S0
G1 X-5S640
G1 X-1S0
G1 X-5S560
G1 X-1S0
G1 X-5S480
G1 X-1S0
G1 X-5S400
G1 X-1S0
G1 X-5S320
G1 X-1S0
G1 X-5S240
G1 X-1S0
G1 X-5S160
G1 X-1S0
G1 X-5S80
G1 Y0.1S0
G1 X5S80
G1 X1S0
G1 X5S160
G1 X1S0
G1 X5S240
G1 X1S0
G1 X5S320
G1 X1S0
G1 X5S400
G1 X1S0
G1 X5S480
G1 X1S0
G1 X5S560
G1 X1S0
G1 X5S640
G1 X1S0
G1 X5S720
G1 X1S0
G1 X5S800
G1 Y0.1S0
G1 X-5S800
G1 X-1S0
G1 X-5S720
G1 X-1S0
G1 X-5S640
G1 X-1S0
G1 X-5S560
G1 X-1S0
G1 X-5S480
G1 X-1S0
G1 X-5S400
G1 X-1S0
G1 X-5S320
G1 X-1S0
G1 X-5S240
G1 X-1S0
G1 X-5S160
G1 X-1S0
G1 X-5S80
G90
; Scan @ 9000 mm/min, 80% power
M8
G0 X0.188Y6.05
; Layer Speed 150 mm/s
G91
G1 X5F9000
G1 X1S0
G1 X5S160
G1 X1S0
G1 X5S240
G1 X1S0
G1 X5S320
G1 X1S0
G1 X5S400
G1 X1S0
G1 X5S480
G1 X1S0
G1 X5S560
G1 X1S0
G1 X5S640
G1 X1S0
G1 X5S720
G1 X1S0
G1 X5S800
G1 Y0.1S0
G1 X-5S800
G1 X-1S0
G1 X-5S720
G1 X-1S0
G1 X-5S640
G1 X-1S0
G1 X-5S560
G1 X-1S0
G1 X-5S480
G1 X-1S0
G1 X-5S400
G1 X-1S0
G1 X-5S320
G1 X-1S0
G1 X-5S240
G1 X-1S0
G1 X-5S160
G1 X-1S0
G1 X-5S80
G1 Y0.1S0
G1 X5S80
G1 X1S0
G1 X5S160
G1 X1S0
G1 X5S240
G1 X1S0
G1 X5S320
G1 X1S0
G1 X5S400
G1 X1S0
G1 X5S480
G1 X1S0
G1 X5S560
G1 X1S0
G1 X5S640
G1 X1S0
G1 X5S720
G1 X1S0
G1 X5S800
G1 Y0.1S0
G1 X-5S800
G1 X-1S0
G1 X-5S720
G1 X-1S0
G1 X-5S640
G1 X-1S0
G1 X-5S560
G1 X-1S0
G1 X-5S480
G1 X-1S0
G1 X-5S400
G1 X-1S0
G1 X-5S320
G1 X-1S0
G1 X-5S240
G1 X-1S0
G1 X-5S160
G1 X-1S0
G1 X-5S80
G1 Y0.1S0
G1 X5S80
G1 X1S0
G1 X5S160
G1 X1S0
G1 X5S240
G1 X1S0
G1 X5S320
G1 X1S0
G1 X5S400
G1 X1S0
G1 X5S480
G1 X1S0
G1 X5S560
G1 X1S0
G1 X5S640
G1 X1S0
G1 X5S720
G1 X1S0
G1 X5S800
G1 Y0.1S0
G1 X-5S800
G1 X-1S0
G1 X-5S720
G1 X-1S0
G1 X-5S640
G1 X-1S0
G1 X-5S560
G1 X-1S0
G1 X-5S480
G1 X-1S0
G1 X-5S400
G1 X-1S0
G1 X-5S320
G1 X-1S0
G1 X-5S240
G1 X-1S0
G1 X-5S160
G1 X-1S0
G1 X-5S80
G1 Y0.1S0
G1 X5S80
G1 X1S0
G1 X5S160
G1 X1S0
G1 X5S240
G1 X1S0
G1 X5S320
G1 X1S0
G1 X5S400
G1 X1S0
G1 X5S480
G1 X1S0
G1 X5S560
G1 X1S0
G1 X5S640
G1 X1S0
G1 X5S720
G1 X1S0
G1 X5S800
G1 Y0.1S0
G1 X-5S800
G1 X-1S0
G1 X-5S720
G1 X-1S0
G1 X-5S640
G1 X-1S0
G1 X-5S560
G1 X-1S0
G1 X-5S480
G1 X-1S0
G1 X-5S400
G1 X-1S0
G1 X-5S320
G1 X-1S0
G1 X-5S240
G1 X-1S0
G1 X-5S160
G1 X-1S0
G1 X-5S80
G1 Y0.1S0
G1 X5S80
G1 X1S0
G1 X5S160
G1 X1S0
G1 X5S240
G1 X1S0
G1 X5S320
G1 X1S0
G1 X5S400
G1 X1S0
G1 X5S480
G1 X1S0
G1 X5S560
G1 X1S0
G1 X5S640
G1 X1S0
G1 X5S720
G1 X1S0
G1 X5S800
G1 Y0.1S0
G1 X-5S800
G1 X-1S0
G1 X-5S720
G1 X-1S0
G1 X-5S640
G1 X-1S0
G1 X-5S560
G1 X-1S0
G1 X-5S480
G1 X-1S0
G1 X-5S400
G1 X-1S0
G1 X-5S320
G1 X-1S0
G1 X-5S240
G1 X-1S0
G1 X-5S160
G1 X-1S0
G1 X-5S80
G1 Y0.1S0
G1 X5S80
G1 X1S0
G1 X5S160
G1 X1S0
G1 X5S240
G1 X1S0
G1 X5S320
G1 X1S0
G1 X5S400
G1 X1S0
G1 X5S480
G1 X1S0
G1 X5S560
G1 X1S0
G1 X5S640
G1 X1S0
G1 X5S720
G1 X1S0
G1 X5S800
G1 Y0.1S0
G1 X-5S800
G1 X-1S0
G1 X-5S720
G1 X-1S0
G1 X-5S640
G1 X-1S0
G1 X-5S560
G1 X-1S0
G1 X-5S480
G1 X-1S0
G1 X-5S400
G1 X-1S0
G1 X-5S320
G1 X-1S0
G1 X-5S240
G1 X-1S0
G1 X-5S160
G1 X-1S0
G1 X-5S80
G1 Y0.1S0
G1 X5S80
G1 X1S0
G1 X5S160
G1 X1S0
G1 X5S240
G1 X1S0
G1 X5S320
G1 X1S0
G1 X5S400
G1 X1S0
G1 X5S480
G1 X1S0
G1 X5S560
G1 X1S0
G1 X5S640
G1 X1S0
G1 X5S720
G1 X1S0
G1 X5S800
G1 Y0.1S0
G1 X-5S800
G1 X-1S0
G1 X-5S720
G1 X-1S0
G1 X-5S640
G1 X-1S0
G1 X-5S560
G1 X-1S0
G1 X-5S480
G1 X-1S0
G1 X-5S400
G1 X-1S0
G1 X-5S320
G1 X-1S0
G1 X-5S240
G1 X-1S0
G1 X-5S160
G1 X-1S0
G1 X-5S80
G1 Y0.1S0
G1 X5S80
G1 X1S0
G1 X5S160
G1 X1S0
G1 X5S240
G1 X1S0
G1 X5S320
G1 X1S0
G1 X5S400
G1 X1S0
G1 X5S480
G1 X1S0
G1 X5S560
G1 X1S0
G1 X5S640
G1 X1S0
G1 X5S720
G1 X1S0
G1 X5S800
G1 Y0.1S0
G1 X-5S800
G1 X-1S0
G1 X-5S720
G1 X-1S0
G1 X-5S640
G1 X-1S0
G1 X-5S560
G1 X-1S0
G1 X-5S480
G1 X-1S0
G1 X-5S400
G1 X-1S0
G1 X-5S320
G1 X-1S0
G1 X-5S240
G1 X-1S0
G1 X-5S160
G1 X-1S0
G1 X-5S80
G1 Y0.1S0
G1 X5S80
G1 X1S0
G1 X5S160
G1 X1S0
G1 X5S240
G1 X1S0
G1 X5S320
G1 X1S0
G1 X5S400
G1 X1S0
G1 X5S480
G1 X1S0
G1 X5S560
G1 X1S0
G1 X5S640
G1 X1S0
G1 X5S720
G1 X1S0
G1 X5S800
G1 Y0.1S0
G1 X-5S800
G1 X-1S0
G1 X-5S720
G1 X-1S0
G1 X-5S640
G1 X-1S0
G1 X-5S560
G1 X-1S0
G1 X-5S480
G1 X-1S0
G1 X-5S400
G1 X-1S0
G1 X-5S320
G1 X-1S0
G1 X-5S240
G1 X-1S0
G1 X-5S160
G1 X-1S0
G1 X-5S80
G1 Y0.1S0
G1 X5S80
G1 X1S0
G1 X5S160
G1 X1S0
G1 X5S240
G1 X1S0
G1 X5S320
G1 X1S0
G1 X5S400
G1 X1S0
G1 X5S480
G1 X1S0
G1 X5S560
G1 X1S0
G1 X5S640
G1 X1S0
G1 X5S720
G1 X1S0
G1 X5S800
G1 Y0.1S0
G1 X-5S800
G1 X-1S0
G1 X-5S720
G1 X-1S0
G1 X-5S640
G1 X-1S0
G1 X-5S560
G1 X-1S0
G1 X-5S480
G1 X-1S0
G1 X-5S400
G1 X-1S0
G1 X-5S320
G1 X-1S0
G1 X-5S240
G1 X-1S0
G1 X-5S160
G1 X-1S0
G1 X-5S80
G1 Y0.1S0
G1 X5S80
G1 X1S0
G1 X5S160
G1 X1S0
G1 X5S240
G1 X1S0
G1 X5S320
G1 X1S0
G1 X5S400
G1 X1S0
G1 X5S480
G1 X1S0
G1 X5S560
G1 X1S0
G1 X5S640
G1 X1S0
G1 X5S720
G1 X1S0
G1 X5S800
G1 Y0.1S0
G1 X-5S800
G1 X-1S0
G1 X-5S720
G1 X-1S0
G1 X-5S640
G1 X-1S0
G1 X-5S560
G1 X-1S0
G1 X-5S480
G1 X-1S0
G1 X-5S400
G1 X-1S0
G1 X-5S320
G1 X-1S0
G1 X-5S240
G1 X-1S0
G1 X-5S160
G1 X-1S0
G1 X-5S80
G1 Y0.1S0
G1 X5S80
G1 X1S0
G1 X5S160
G1 X1S0
G1 X5S240
G1 X1S0
G1 X5S320
G1 X1S0
G1 X5S400
G1 X1S0
G1 X5S480
G1 X1S0
G1 X5S560
G1 X1S0
G1 X5S640
G1 X1S0
G1 X5S720
G1 X1S0
G1 X5S800
G1 Y0.1S0
G1 X-5S800
G1 X-1S0
G1 X-5S720
G1 X-1S0
G1 X-5S640
G1 X-1S0
G1 X-5S560
G1 X-1S0
G1 X-5S480
G1 X-1S0
G1 X-5S400
G1 X-1S0
G1 X-5S320
G1 X-1S0
G1 X-5S240
G1 X-1S0
G1 X-5S160
G1 X-1S0
G1 X-5S80
G1 Y0.1S0
G1 X5S80
G1 X1S0
G1 X5S160
G1 X1S0
G1 X5S240
G1 X1S0
G1 X5S320
G1 X1S0
G1 X5S400
G1 X1S0
G1 X5S480
G1 X1S0
G1 X5S560
G1 X1S0
G1 X5S640
G1 X1S0
G1 X5S720
G1 X1S0
G1 X5S800
G1 Y0.1S0
G1 X-5S800
G1 X-1S0
G1 X-5S720
G1 X-1S0
G1 X-5S640
G1 X-1S0
G1 X-5S560
G1 X-1S0
G1 X-5S480
G1 X-1S0
G1 X-5S400
G1 X-1S0
G1 X-5S320
G1 X-1S0
G1 X-5S240
G1 X-1S0
G1 X-5S160
G1 X-1S0
G1 X-5S80
G1 Y0.1S0
G1 X5S80
G1 X1S0
G1 X5S160
G1 X1S0
G1 X5S240
G1 X1S0
G1 X5S320
G1 X1S0
G1 X5S400
G1 X1S0
G1 X5S480
G1 X1S0
G1 X5S560
G1 X1S0
G1 X5S640
G1 X1S0
G1 X5S720
G1 X1S0
G1 X5S800
G1 Y0.1S0
G1 X-5S800
G1 X-1S0
G1 X-5S720
G1 X-1S0
G1 X-5S640
G1 X-1S0
G1 X-5S560
G1 X-1S0
G1 X-5S480
G1 X-1S0
G1 X-5S400
G1 X-1S0
G1 X-5S320
G1 X-1S0
G1 X-5S240
G1 X-1S0
G1 X-5S160
G1 X-1S0
G1 X-5S80
G1 Y0.1S0
G1 X5S80
G1 X1S0
G1 X5S160
G1 X1S0
G1 X5S240
G1 X1S0
G1 X5S320
G1 X1S0
G1 X5S400
G1 X1S0
G1 X5S480
G1 X1S0
G1 X5S560
G1 X1S0
G1 X5S640
G1 X1S0
G1 X5S720
G1 X1S0
G1 X5S800
G1 Y0.1S0
G1 X-5S800
G1 X-1S0
G1 X-5S720
G1 X-1S0
G1 X-5S640
G1 X-1S0
G1 X-5S560
G1 X-1S0
G1 X-5S480
G1 X-1S0
G1 X-5S400
G1 X-1S0
G1 X-5S320
G1 X-1S0
G1 X-5S240
G1 X-1S0
G1 X-5S160
G1 X-1S0
G1 X-5S80
G1 Y0.1S0
G1 X5S80
G1 X1S0
G1 X5S160
G1 X1S0
G1 X5S240
G1 X1S0
G1 X5S320
G1 X1S0
G1 X5S400
G1 X1S0
G1 X5S480
G1 X1S0
G1 X5S560
G1 X1S0
G1 X5S640
G1 X1S0
G1 X5S720
G1 X1S0
G1 X5S800
G1 Y0.1S0
G1 X-5S800
G1 X-1S0
G1 X-5S720
G1 X-1S0
G1 X-5S640
G1 X-1S0
G1 X-5S560
G1 X-1S0
G1 X-5S480
G1 X-1S0
G1 X-5S400
G1 X-1S0
G1 X-5S320
G1 X-1S0
G1 X-5S240
G1 X-1S0
G1 X-5S160
G1 X-1S0
G1 X-5S80
G1 Y0.1S0
G1 X5S80
G1 X1S0
G1 X5S160
G1 X1S0
G1 X5S240
G1 X1S0
G1 X5S320
G1 X1S0
G1 X5S400
G1 X1S0
G1 X5S480
G1 X1S0
G1 X5S560
G1 X1S0
G1 X5S640
G1 X1S0
G1 X5S720
G1 X1S0
G1 X5S800
G1 Y0.1S0
G1 X-5S800
G1 X-1S0
G1 X-5S720
G1 X-1S0
G1 X-5S640
G1 X-1S0
G1 X-5S560
G1 X-1S0
G1 X-5S480
G1 X-1S0
G1 X-5S400
G1 X-1S0
G1 X-5S320
G1 X-1S0
G1 X-5S240
G1 X-1S0
G1 X-5S160
G1 X-1S0
G1 X-5S80
G1 Y0.1S0
G1 X5S80
G1 X1S0
G1 X5S160
G1 X1S0
G1 X5S240
G1 X1S0
G1 X5S320
G1 X1S0
G1 X5S400
G1 X1S0
G1 X5S480
G1 X1S0
G1 X5S560
G1 X1S0
G1 X5S640
G1 X1S0
G1 X5S720
G1 X1S0
G1 X5S800
G1 Y0.1S0
G1 X-5S800
G1 X-1S0
G1 X-5S720
G1 X-1S0
G1 X-5S640
G1 X-1S0
G1 X-5S560
G1 X-1S0
G1 X-5S480
G1 X-1S0
G1 X-5S400
G1 X-1S0
G1 X-5S320
G1 X-1S0
G1 X-5S240
G1 X-1S0
G1 X-5S160
G1 X-1S0
G1 X-5S80
G1 Y0.1S0
G1 X5S80
G1 X1S0
G1 X5S160
G1 X1S0
G1 X5S240
G1 X1S0
G1 X5S320
G1 X1S0
G1 X5S400
G1 X1S0
G1 X5S480
G1 X1S0
G1 X5S560
G1 X1S0
G1 X5S640
G1 X1S0
G1 X5S720
G1 X1S0
G1 X5S800
G1 Y0.1S0
G1 X-5S800
G1 X-1S0
G1 X-5S720
G1 X-1S0
G1 X-5S640
G1 X-1S0
G1 X-5S560
G1 X-1S0
G1 X-5S480
G1 X-1S0
G1 X-5S400
G1 X-1S0
G1 X-5S320
G1 X-1S0
G1 X-5S240
G1 X-1S0
G1 X-5S160
G1 X-1S0
G1 X-5S80
G1 Y0.1S0
G1 X5S80
G1 X1S0
G1 X5S160
G1 X1S0
G1 X5S240
G1 X1S0
G1 X5S320
G1 X1S0
G1 X5S400
G1 X1S0
G1 X5S480
G1 X1S0
G1 X5S560
G1 X1S0
G1 X5S640
G1 X1S0
G1 X5S720
G1 X1S0
G1 X5S800
G1 Y0.1S0
G1 X-5S800
G1 X-1S0
G1 X-5S720
G1 X-1S0
G1 X-5S640
G1 X-1S0
G1 X-5S560
G1 X-1S0
G1 X-5S480
G1 X-1S0
G1 X-5S400
G1 X-1S0
G1 X-5S320
G1 X-1S0
G1 X-5S240
G1 X-1S0
G1 X-5S160
G1 X-1S0
G1 X-5S80
G1 Y0.1S0
G1 X5S80
G1 X1S0
G1 X5S160
G1 X1S0
G1 X5S240
G1 X1S0
G1 X5S320
G1 X1S0
G1 X5S400
G1 X1S0
G1 X5S480
G1 X1S0
G1 X5S560
G1 X1S0
G1 X5S640
G1 X1S0
G1 X5S720
G1 X1S0
G1 X5S800
G1 Y0.1S0
G1 X-5S800
G1 X-1S0
G1 X-5S720
G1 X-1S0
G1 X-5S640
G1 X-1S0
G1 X-5S560
G1 X-1S0
G1 X-5S480
G1 X-1S0
G1 X-5S400
G1 X-1S0
G1 X-5S320
G1 X-1S0
G1 X-5S240
G1 X-1S0
G1 X-5S160
G1 X-1S0
G1 X-5S80
G1 Y0.1S0
G1 X5S80
G1 X1S0
G1 X5S160
G1 X1S0
G1 X5S240
G1 X1S0
G1 X5S320
G1 X1S0
G1 X5S400
G1 X1S0
G1 X5S480
G1 X1S0
G1 X5S560
G1 X1S0
G1 X5S640
G1 X1S0
G1 X5S720
G1 X1S0
G1 X5S800
G1 Y0.1S0
G1 X-5S800
G1 X-1S0
G1 X-5S720
G1 X-1S0
G1 X-5S640
G1 X-1S0
G1 X-5S560
G1 X-1S0
G1 X-5S480
G1 X-1S0
G1 X-5S400
G1 X-1S0
G1 X-5S320
G1 X-1S0
G1 X-5S240
G1 X-1S0
G1 X-5S160
G1 X-1S0
G1 X-5S80
G1 Y0.1S0
G1 X5S80
G1 X1S0
G1 X5S160
G1 X1S0
G1 X5S240
G1 X1S0
G1 X5S320
G1 X1S0
G1 X5S400
G1 X1S0
G1 X5S480
G1 X1S0
G1 X5S560
G1 X1S0
G1 X5S640
G1 X1S0
G1 X5S720
G1 X1S0
G1 X5S800
G1 Y0.1S0
G1 X-5S800
G1 X-1S0
G1 X-5S720
G1 X-1S0
G1 X-5S640
G1 X-1S0
G1 X-5S560
G1 X-1S0
G1 X-5S480
G1 X-1S0
G1 X-5S400
G1 X-1S0
G1 X-5S320
G1 X-1S0
G1 X-5S240
G1 X-1S0
G1 X-5S160
G1 X-1S0
G1 X-5S80
G1 Y0.1S0
G1 X5S80
G1 X1S0
G1 X5S160
G1 X1S0
G1 X5S240
G1 X1S0
G1 X5S320
G1 X1S0
G1 X5S400
G1 X1S0
G1 X5S480
G1 X1S0
G1 X5S560
G1 X1S0
G1 X5S640
G1 X1S0
G1 X5S720
G1 X1S0
G1 X5S800
G1 Y0.1S0
G1 X-5S800
G1 X-1S0
G1 X-5S720
G1 X-1S0
G1 X-5S640
G1 X-1S0
G1 X-5S560
G1 X-1S0
G1 X-5S480
G1 X-1S0
G1 X-5S400
G1 X-1S0
G1 X-5S320
G1 X-1S0
G1 X-5S240
G1 X-1S0
G1 X-5S160
G1 X-1S0
G1 X-5S80
G1 Y0.1S0
G1 X5S80
G1 X1S0
G1 X5S160
G1 X1S0
G1 X5S240
G1 X1S0
G1 X5S320
G1 X1S0
G1 X5S400
G1 X1S0
G1 X5S480
G1 X1S0
G1 X5S560
G1 X1S0
G1 X5S640
G1 X1S0
G1 X5S720
G1 X1S0
G1 X5S800
G1 Y0.1S0
G1 X-5S800
G1 X-1S0
G1 X-5S720
G1 X-1S0
G1 X-5S640
G1 X-1S0
G1 X-5S560
G1 X-1S0
G1 X-5S480
G1 X-1S0
G1 X-5S400
G1 X-1S0
G1 X-5S320
G1 X-1S0
G1 X-5S240
G1 X-1S0
G1 X-5S160
G1 X-1S0
G1 X-5S80
G90
; Scan @ 6000 mm/min, 80% power
M8
G0 X0.188Y12.05
; Layer Speed 100 mm/s
G91
G1 X5F6000
G1 X1S0
G1 X5S160
G1 X1S0
G1 X5S240
G1 X1S0
G1 X5S320
G1 X1S0
G1 X5S400
G1 X1S0
G1 X5S480
G1 X1S0
G1 X5S560
G1 X1S0
G1 X5S640
G1 X1S0
G1 X5S720
G1 X1S0
G1 X5S800
G1 Y0.1S0
G1 X-5S800
G1 X-1S0
G1 X-5S720
G1 X-1S0
G1 X-5S640
G1 X-1S0
G1 X-5S560
G1 X-1S0
G1 X-5S480
G1 X-1S0
G1 X-5S400
G1 X-1S0
G1 X-5S320
G1 X-1S0
G1 X-5S240
G1 X-1S0
G1 X-5S160
G1 X-1S0
G1 X-5S80
G1 Y0.1S0
G1 X5S80
G1 X1S0
G1 X5S160
G1 X1S0
G1 X5S240
G1 X1S0
G1 X5S320
G1 X1S0
G1 X5S400
G1 X1S0
G1 X5S480
G1 X1S0
G1 X5S560
G1 X1S0
G1 X5S640
G1 X1S0
G1 X5S720
G1 X1S0
G1 X5S800
G1 Y0.1S0
G1 X-5S800
G1 X-1S0
G1 X-5S720
G1 X-1S0
G1 X-5S640
G1 X-1S0
G1 X-5S560
G1 X-1S0
G1 X-5S480
G1 X-1S0
G1 X-5S400
G1 X-1S0
G1 X-5S320
G1 X-1S0
G1 X-5S240
G1 X-1S0
G1 X-5S160
G1 X-1S0
G1 X-5S80
G1 Y0.1S0
G1 X5S80
G1 X1S0
G1 X5S160
G1 X1S0
G1 X5S240
G1 X1S0
G1 X5S320
G1 X1S0
G1 X5S400
G1 X1S0
G1 X5S480
G1 X1S0
G1 X5S560
G1 X1S0
G1 X5S640
G1 X1S0
G1 X5S720
G1 X1S0
G1 X5S800
G1 Y0.1S0
G1 X-5S800
G1 X-1S0
G1 X-5S720
G1 X-1S0
G1 X-5S640
G1 X-1S0
G1 X-5S560
G1 X-1S0
G1 X-5S480
G1 X-1S0
G1 X-5S400
G1 X-1S0
G1 X-5S320
G1 X-1S0
G1 X-5S240
G1 X-1S0
G1 X-5S160
G1 X-1S0
G1 X-5S80
G1 Y0.1S0
G1 X5S80
G1 X1S0
G1 X5S160
G1 X1S0
G1 X5S240
G1 X1S0
G1 X5S320
G1 X1S0
G1 X5S400
G1 X1S0
G1 X5S480
G1 X1S0
G1 X5S560
G1 X1S0
G1 X5S640
G1 X1S0
G1 X5S720
G1 X1S0
G1 X5S800
G1 Y0.1S0
G1 X-5S800
G1 X-1S0
G1 X-5S720
G1 X-1S0
G1 X-5S640
G1 X-1S0
G1 X-5S560
G1 X-1S0
G1 X-5S480
G1 X-1S0
G1 X-5S400
G1 X-1S0
G1 X-5S320
G1 X-1S0
G1 X-5S240
G1 X-1S0
G1 X-5S160
G1 X-1S0
G1 X-5S80
G1 Y0.1S0
G1 X5S80
G1 X1S0
G1 X5S160
G1 X1S0
G1 X5S240
G1 X1S0
G1 X5S320
G1 X1S0
G1 X5S400
G1 X1S0
G1 X5S480
G1 X1S0
G1 X5S560
G1 X1S0
G1 X5S640
G1 X1S0
G1 X5S720
G1 X1S0
G1 X5S800
G1 Y0.1S0
G1 X-5S800
G1 X-1S0
G1 X-5S720
G1 X-1S0
G1 X-5S640
G1 X-1S0
G1 X-5S560
G1 X-1S0
G1 X-5S480
G1 X-1S0
G1 X-5S400
G1 X-1S0
G1 X-5S320
G1 X-1S0
G1 X-5S240
G1 X-1S0
G1 X-5S160
G1 X-1S0
G1 X-5S80
G1 Y0.1S0
G1 X5S80
G1 X1S0
G1 X5S160
G1 X1S0
G1 X5S240
G1 X1S0
G1 X5S320
G1 X1S0
G1 X5S400
G1 X1S0
G1 X5S480
G1 X1S0
G1 X5S560
G1 X1S0
G1 X5S640
G1 X1S0
G1 X5S720
G1 X1S0
G1 X5S800
G1 Y0.1S0
G1 X-5S800
G1 X-1S0
G1 X-5S720
G1 X-1S0
G1 X-5S640
G1 X-1S0
G1 X-5S560
G1 X-1S0
G1 X-5S480
G1 X-1S0
G1 X-5S400
G1 X-1S0
G1 X-5S320
G1 X-1S0
G1 X-5S240
G1 X-1S0
G1 X-5S160
G1 X-1S0
G1 X-5S80
G1 Y0.1S0
G1 X5S80
G1 X1S0
G1 X5S160
G1 X1S0
G1 X5S240
G1 X1S0
G1 X5S320
G1 X1S0
G1 X5S400
G1 X1S0
G1 X5S480
G1 X1S0
G1 X5S560
G1 X1S0
G1 X5S640
G1 X1S0
G1 X5S720
G1 X1S0
G1 X5S800
G1 Y0.1S0
G1 X-5S800
G1 X-1S0
G1 X-5S720
G1 X-1S0
G1 X-5S640
G1 X-1S0
G1 X-5S560
G1 X-1S0
G1 X-5S480
G1 X-1S0
G1 X-5S400
G1 X-1S0
G1 X-5S320
G1 X-1S0
G1 X-5S240
G1 X-1S0
G1 X-5S160
G1 X-1S0
G1 X-5S80
G1 Y0.1S0
G1 X5S80
G1 X1S0
G1 X5S160
G1 X1S0
G1 X5S240
G1 X1S0
G1 X5S320
G1 X1S0
G1 X5S400
G1 X1S0
G1 X5S480
G1 X1S0
G1 X5S560
G1 X1S0
G1 X5S640
G1 X1S0
G1 X5S720
G1 X1S0
G1 X5S800
G1 Y0.1S0
G1 X-5S800
G1 X-1S0
G1 X-5S720
G1 X-1S0
G1 X-5S640
G1 X-1S0
G1 X-5S560
G1 X-1S0
G1 X-5S480
G1 X-1S0
G1 X-5S400
G1 X-1S0
G1 X-5S320
G1 X-1S0
G1 X-5S240
G1 X-1S0
G1 X-5S160
G1 X-1S0
G1 X-5S80
G1 Y0.1S0
G1 X5S80
G1 X1S0
G1 X5S160
G1 X1S0
G1 X5S240
G1 X1S0
G1 X5S320
G1 X1S0
G1 X5S400
G1 X1S0
G1 X5S480
G1 X1S0
G1 X5S560
G1 X1S0
G1 X5S640
G1 X1S0
G1 X5S720
G1 X1S0
G1 X5S800
G1 Y0.1S0
G1 X-5S800
G1 X-1S0
G1 X-5S720
G1 X-1S0
G1 X-5S640
G1 X-1S0
G1 X-5S560
G1 X-1S0
G1 X-5S480
G1 X-1S0
G1 X-5S400
G1 X-1S0
G1 X-5S320
G1 X-1S0
G1 X-5S240
G1 X-1S0
G1 X-5S160
G1 X-1S0
G1 X-5S80
G1 Y0.1S0
G1 X5S80
G1 X1S0
G1 X5S160
G1 X1S0
G1 X5S240
G1 X1S0
G1 X5S320
G1 X1S0
G1 X5S400
G1 X1S0
G1 X5S480
G1 X1S0
G1 X5S560
G1 X1S0
G1 X5S640
G1 X1S0
G1 X5S720
G1 X1S0
G1 X5S800
G1 Y0.1S0
G1 X-5S800
G1 X-1S0
G1 X-5S720
G1 X-1S0
G1 X-5S640
G1 X-1S0
G1 X-5S560
G1 X-1S0
G1 X-5S480
G1 X-1S0
G1 X-5S400
G1 X-1S0
G1 X-5S320
G1 X-1S0
G1 X-5S240
G1 X-1S0
G1 X-5S160
G1 X-1S0
G1 X-5S80
G1 Y0.1S0
G1 X5S80
G1 X1S0
G1 X5S160
G1 X1S0
G1 X5S240
G1 X1S0
G1 X5S320
G1 X1S0
G1 X5S400
G1 X1S0
G1 X5S480
G1 X1S0
G1 X5S560
G1 X1S0
G1 X5S640
G1 X1S0
G1 X5S720
G1 X1S0
G1 X5S800
G1 Y0.1S0
G1 X-5S800
G1 X-1S0
G1 X-5S720
G1 X-1S0
G1 X-5S640
G1 X-1S0
G1 X-5S560
G1 X-1S0
G1 X-5S480
G1 X-1S0
G1 X-5S400
G1 X-1S0
G1 X-5S320
G1 X-1S0
G1 X-5S240
G1 X-1S0
G1 X-5S160
G1 X-1S0
G1 X-5S80
G1 Y0.1S0
G1 X5S80
G1 X1S0
G1 X5S160
G1 X1S0
G1 X5S240
G1 X1S0
G1 X5S320
G1 X1S0
G1 X5S400
G1 X1S0
G1 X5S480
G1 X1S0
G1 X5S560
G1 X1S0
G1 X5S640
G1 X1S0
G1 X5S720
G1 X1S0
G1 X5S800
G1 Y0.1S0
G1 X-5S800
G1 X-1S0
G1 X-5S720
G1 X-1S0
G1 X-5S640
G1 X-1S0
G1 X-5S560
G1 X-1S0
G1 X-5S480
G1 X-1S0
G1 X-5S400
G1 X-1S0
G1 X-5S320
G1 X-1S0
G1 X-5S240
G1 X-1S0
G1 X-5S160
G1 X-1S0
G1 X-5S80
G1 Y0.1S0
G1 X5S80
G1 X1S0
G1 X5S160
G1 X1S0
G1 X5S240
G1 X1S0
G1 X5S320
G1 X1S0
G1 X5S400
G1 X1S0
G1 X5S480
G1 X1S0
G1 X5S560
G1 X1S0
G1 X5S640
G1 X1S0
G1 X5S720
G1 X1S0
G1 X5S800
G1 Y0.1S0
G1 X-5S800
G1 X-1S0
G1 X-5S720
G1 X-1S0
G1 X-5S640
G1 X-1S0
G1 X-5S560
G1 X-1S0
G1 X-5S480
G1 X-1S0
G1 X-5S400
G1 X-1S0
G1 X-5S320
G1 X-1S0
G1 X-5S240
G1 X-1S0
G1 X-5S160
G1 X-1S0
G1 X-5S80
G1 Y0.1S0
G1 X5S80
G1 X1S0
G1 X5S160
G1 X1S0
G1 X5S240
G1 X1S0
G1 X5S320
G1 X1S0
G1 X5S400
G1 X1S0
G1 X5S480
G1 X1S0
G1 X5S560
G1 X1S0
G1 X5S640
G1 X1S0
G1 X5S720
G1 X1S0
G1 X5S800
G1 Y0.1S0
G1 X-5S800
G1 X-1S0
G1 X-5S720
G1 X-1S0
G1 X-5S640
G1 X-1S0
G1 X-5S560
G1 X-1S0
G1 X-5S480
G1 X-1S0
G1 X-5S400
G1 X-1S0
G1 X-5S320
G1 X-1S0
G1 X-5S240
G1 X-1S0
G1 X-5S160
G1 X-1S0
G1 X-5S80
G1 Y0.1S0
G1 X5S80
G1 X1S0
G1 X5S160
G1 X1S0
G1 X5S240
G1 X1S0
G1 X5S320
G1 X1S0
G1 X5S400
G1 X1S0
G1 X5S480
G1 X1S0
G1 X5S560
G1 X1S0
G1 X5S640
G1 X1S0
G1 X5S720
G1 X1S0
G1 X5S800
G1 Y0.1S0
G1 X-5S800
G1 X-1S0
G1 X-5S720
G1 X-1S0
G1 X-5S640
G1 X-1S0
G1 X-5S560
G1 X-1S0
G1 X-5S480
G1 X-1S0
G1 X-5S400
G1 X-1S0
G1 X-5S320
G1 X-1S0
G1 X-5S240
G1 X-1S0
G1 X-5S160
G1 X-1S0
G1 X-5S80
G1 Y0.1S0
G1 X5S80
G1 X1S0
G1 X5S160
G1 X1S0
G1 X5S240
G1 X1S0
G1 X5S320
G1 X1S0
G1 X5S400
G1 X1S0
G1 X5S480
G1 X1S0
G1 X5S560
G1 X1S0
G1 X5S640
G1 X1S0
G1 X5S720
G1 X1S0
G1 X5S800
G1 Y0.1S0
G1 X-5S800
G1 X-1S0
G1 X-5S720
G1 X-1S0
G1 X-5S640
G1 X-1S0
G1 X-5S560
G1 X-1S0
G1 X-5S480
G1 X-1S0
G1 X-5S400
G1 X-1S0
G1 X-5S320
G1 X-1S0
G1 X-5S240
G1 X-1S0
G1 X-5S160
G1 X-1S0
G1 X-5S80
G1 Y0.1S0
G1 X5S80
G1 X1S0
G1 X5S160
G1 X1S0
G1 X5S240
G1 X1S0
G1 X5S320
G1 X1S0
G1 X5S400
G1 X1S0
G1 X5S480
G1 X1S0
G1 X5S560
G1 X1S0
G1 X5S640
G1 X1S0
G1 X5S720
G1 X1S0
G1 X5S800
G1 Y0.1S0
G1 X-5S800
G1 X-1S0
G1 X-5S720
G1 X-1S0
G1 X-5S640
G1 X-1S0
G1 X-5S560
G1 X-1S0
G1 X-5S480
G1 X-1S0
G1 X-5S400
G1 X-1S0
G1 X-5S320
G1 X-1S0
G1 X-5S240
G1 X-1S0
G1 X-5S160
G1 X-1S0
G1 X-5S80
G1 Y0.1S0
G1 X5S80
G1 X1S0
G1 X5S160
G1 X1S0
G1 X5S240
G1 X1S0
G1 X5S320
G1 X1S0
G1 X5S400
G1 X1S0
G1 X5S480
G1 X1S0
G1 X5S560
G1 X1S0
G1 X5S640
G1 X1S0
G1 X5S720
G1 X1S0
G1 X5S800
G1 Y0.1S0
G1 X-5S800
G1 X-1S0
G1 X-5S720
G1 X-1S0
G1 X-5S640
G1 X-1S0
G1 X-5S560
G1 X-1S0
G1 X-5S480
G1 X-1S0
G1 X-5S400
G1 X-1S0
G1 X-5S320
G1 X-1S0
G1 X-5S240
G1 X-1S0
G1 X-5S160
G1 X-1S0
G1 X-5S80
G1 Y0.1S0
G1 X5S80
G1 X1S0
G1 X5S160
G1 X1S0
G1 X5S240
G1 X1S0
G1 X5S320
G1 X1S0
G1 X5S400
G1 X1S0
G1 X5S480
G1 X1S0
G1 X5S560
G1 X1S0
G1 X5S640
G1 X1S0
G1 X5S720
G1 X1S0
G1 X5S800
G1 Y0.1S0
G1 X-5S800
G1 X-1S0
G1 X-5S720
G1 X-1S0
G1 X-5S640
G1 X-1S0
G1 X-5S560
G1 X-1S0
G1 X-5S480
G1 X-1S0
G1 X-5S400
G1 X-1S0
G1 X-5S320
G1 X-1S0
G1 X-5S240
G1 X-1S0
G1 X-5S160
G1 X-1S0
G1 X-5S80
G1 Y0.1S0
G1 X5S80
G1 X1S0
G1 X5S160
G1 X1S0
G1 X5S240
G1 X1S0
G1 X5S320
G1 X1S0
G1 X5S400
G1 X1S0
G1 X5S480
G1 X1S0
G1 X5S560
G1 X1S0
G1 X5S640
G1 X1S0
G1 X5S720
G1 X1S0
G1 X5S800
G1 Y0.1S0
G1 X-5S800
G1 X-1S0
G1 X-5S720
G1 X-1S0
G1 X-5S640
G1 X-1S0
G1 X-5S560
G1 X-1S0
G1 X-5S480
G1 X-1S0
G1 X-5S400
G1 X-1S0
G1 X-5S320
G1 X-1S0
G1 X-5S240
G1 X-1S0
G1 X-5S160
G1 X-1S0
G1 X-5S80
G1 Y0.1S0
G1 X5S80
G1 X1S0
G1 X5S160
G1 X1S0
G1 X5S240
G1 X1S0
G1 X5S320
G1 X1S0
G1 X5S400
G1 X1S0
G1 X5S480
G1 X1S0
G1 X5S560
G1 X1S0
G1 X5S640
G1 X1S0
G1 X5S720
G1 X1S0
G1 X5S800
G1 Y0.1S0
G1 X-5S800
G1 X-1S0
G1 X-5S720
G1 X-1S0
G1 X-5S640
G1 X-1S0
G1 X-5S560
G1 X-1S0
G1 X-5S480
G1 X-1S0
G1 X-5S400
G1 X-1S0
G1 X-5S320
G1 X-1S0
G1 X-5S240
G1 X-1S0
G1 X-5S160
G1 X-1S0
G1 X-5S80
G1 Y0.1S0
G1 X5S80
G1 X1S0
G1 X5S160
G1 X1S0
G1 X5S240
G1 X1S0
G1 X5S320
G1 X1S0
G1 X5S400
G1 X1S0
G1 X5S480
G1 X1S0
G1 X5S560
G1 X1S0
G1 X5S640
G1 X1S0
G1 X5S720
G1 X1S0
G1 X5S800
G1 Y0.1S0
G1 X-5S800
G1 X-1S0
G1 X-5S720
G1 X-1S0
G1 X-5S640
G1 X-1S0
G1 X-5S560
G1 X-1S0
G1 X-5S480
G1 X-1S0
G1 X-5S400
G1 X-1S0
G1 X-5S320
G1 X-1S0
G1 X-5S240
G1 X-1S0
G1 X-5S160
G1 X-1S0
G1 X-5S80
G1 Y0.1S0
G1 X5S80
G1 X1S0
G1 X5S160
G1 X1S0
G1 X5S240
G1 X1S0
G1 X5S320
G1 X1S0
G1 X5S400
G1 X1S0
G1 X5S480
G1 X1S0
G1 X5S560
G1 X1S0
G1 X5S640
G1 X1S0
G1 X5S720
G1 X1S0
G1 X5S800
G1 Y0.1S0
G1 X-5S800
G1 X-1S0
G1 X-5S720
G1 X-1S0
G1 X-5S640
G1 X-1S0
G1 X-5S560
G1 X-1S0
G1 X-5S480
G1 X-1S0
G1 X-5S400
G1 X-1S0
G1 X-5S320
G1 X-1S0
G1 X-5S240
G1 X-1S0
G1 X-5S160
G1 X-1S0
G1 X-5S80
G1 Y0.1S0
G1 X5S80
G1 X1S0
G1 X5S160
G1 X1S0
G1 X5S240
G1 X1S0
G1 X5S320
G1 X1S0
G1 X5S400
G1 X1S0
G1 X5S480
G1 X1S0
G1 X5S560
G1 X1S0
G1 X5S640
G1 X1S0
G1 X5S720
G1 X1S0
G1 X5S800
G1 Y0.1S0
G1 X-5S800
G1 X-1S0
G1 X-5S720
G1 X-1S0
G1 X-5S640
G1 X-1S0
G1 X-5S560
G1 X-1S0
G1 X-5S480
G1 X-1S0
G1 X-5S400
G1 X-1S0
G1 X-5S320
G1 X-1S0
G1 X-5S240
G1 X-1S0
G1 X-5S160
G1 X-1S0
G1 X-5S80
G1 Y0.1S0
G1 X5S80
G1 X1S0
G1 X5S160
G1 X1S0
G1 X5S240
G1 X1S0
G1 X5S320
G1 X1S0
G1 X5S400
G1 X1S0
G1 X5S480
G1 X1S0
G1 X5S560
G1 X1S0
G1 X5S640
G1 X1S0
G1 X5S720
G1 X1S0
G1 X5S800
G1 Y0.1S0
G1 X-5S800
G1 X-1S0
G1 X-5S720
G1 X-1S0
G1 X-5S640
G1 X-1S0
G1 X-5S560
G1 X-1S0
G1 X-5S480
G1 X-1S0
G1 X-5S400
G1 X-1S0
G1 X-5S320
G1 X-1S0
G1 X-5S240
G1 X-1S0
G1 X-5S160
G1 X-1S0
G1 X-5S80
G90
; Scan @ 3000 mm/min, 80% power
M8
G0 X0.188Y18.05
; Layer Speed 50 mm/s
G91
G1 X5F3000
G1 X1S0
G1 X5S160
G1 X1S0
G1 X5S240
G1 X1S0
G1 X5S320
G1 X1S0
G1 X5S400
G1 X1S0
G1 X5S480
G1 X1S0
G1 X5S560
G1 X1S0
G1 X5S640
G1 X1S0
G1 X5S720
G1 X1S0
G1 X5S800
G1 Y0.1S0
G1 X-5S800
G1 X-1S0
G1 X-5S720
G1 X-1S0
G1 X-5S640
G1 X-1S0
G1 X-5S560
G1 X-1S0
G1 X-5S480
G1 X-1S0
G1 X-5S400
G1 X-1S0
G1 X-5S320
G1 X-1S0
G1 X-5S240
G1 X-1S0
G1 X-5S160
G1 X-1S0
G1 X-5S80
G1 Y0.1S0
G1 X5S80
G1 X1S0
G1 X5S160
G1 X1S0
G1 X5S240
G1 X1S0
G1 X5S320
G1 X1S0
G1 X5S400
G1 X1S0
G1 X5S480
G1 X1S0
G1 X5S560
G1 X1S0
G1 X5S640
G1 X1S0
G1 X5S720
G1 X1S0
G1 X5S800
G1 Y0.1S0
G1 X-5S800
G1 X-1S0
G1 X-5S720
G1 X-1S0
G1 X-5S640
G1 X-1S0
G1 X-5S560
G1 X-1S0
G1 X-5S480
G1 X-1S0
G1 X-5S400
G1 X-1S0
G1 X-5S320
G1 X-1S0
G1 X-5S240
G1 X-1S0
G1 X-5S160
G1 X-1S0
G1 X-5S80
G1 Y0.1S0
G1 X5S80
G1 X1S0
G1 X5S160
G1 X1S0
G1 X5S240
G1 X1S0
G1 X5S320
G1 X1S0
G1 X5S400
G1 X1S0
G1 X5S480
G1 X1S0
G1 X5S560
G1 X1S0
G1 X5S640
G1 X1S0
G1 X5S720
G1 X1S0
G1 X5S800
G1 Y0.1S0
G1 X-5S800
G1 X-1S0
G1 X-5S720
G1 X-1S0
G1 X-5S640
G1 X-1S0
G1 X-5S560
G1 X-1S0
G1 X-5S480
G1 X-1S0
G1 X-5S400
G1 X-1S0
G1 X-5S320
G1 X-1S0
G1 X-5S240
G1 X-1S0
G1 X-5S160
G1 X-1S0
G1 X-5S80
G1 Y0.1S0
G1 X5S80
G1 X1S0
G1 X5S160
G1 X1S0
G1 X5S240
G1 X1S0
G1 X5S320
G1 X1S0
G1 X5S400
G1 X1S0
G1 X5S480
G1 X1S0
G1 X5S560
G1 X1S0
G1 X5S640
G1 X1S0
G1 X5S720
G1 X1S0
G1 X5S800
G1 Y0.1S0
G1 X-5S800
G1 X-1S0
G1 X-5S720
G1 X-1S0
G1 X-5S640
G1 X-1S0
G1 X-5S560
G1 X-1S0
G1 X-5S480
G1 X-1S0
G1 X-5S400
G1 X-1S0
G1 X-5S320
G1 X-1S0
G1 X-5S240
G1 X-1S0
G1 X-5S160
G1 X-1S0
G1 X-5S80
G1 Y0.1S0
G1 X5S80
G1 X1S0
G1 X5S160
G1 X1S0
G1 X5S240
G1 X1S0
G1 X5S320
G1 X1S0
G1 X5S400
G1 X1S0
G1 X5S480
G1 X1S0
G1 X5S560
G1 X1S0
G1 X5S640
G1 X1S0
G1 X5S720
G1 X1S0
G1 X5S800
G1 Y0.1S0
G1 X-5S800
G1 X-1S0
G1 X-5S720
G1 X-1S0
G1 X-5S640
G1 X-1S0
G1 X-5S560
G1 X-1S0
G1 X-5S480
G1 X-1S0
G1 X-5S400
G1 X-1S0
G1 X-5S320
G1 X-1S0
G1 X-5S240
G1 X-1S0
G1 X-5S160
G1 X-1S0
G1 X-5S80
G1 Y0.1S0
G1 X5S80
G1 X1S0
G1 X5S160
G1 X1S0
G1 X5S240
G1 X1S0
G1 X5S320
G1 X1S0
G1 X5S400
G1 X1S0
G1 X5S480
G1 X1S0
G1 X5S560
G1 X1S0
G1 X5S640
G1 X1S0
G1 X5S720
G1 X1S0
G1 X5S800
G1 Y0.1S0
G1 X-5S800
G1 X-1S0
G1 X-5S720
G1 X-1S0
G1 X-5S640
G1 X-1S0
G1 X-5S560
G1 X-1S0
G1 X-5S480
G1 X-1S0
G1 X-5S400
G1 X-1S0
G1 X-5S320
G1 X-1S0
G1 X-5S240
G1 X-1S0
G1 X-5S160
G1 X-1S0
G1 X-5S80
G1 Y0.1S0
G1 X5S80
G1 X1S0
G1 X5S160
G1 X1S0
G1 X5S240
G1 X1S0
G1 X5S320
G1 X1S0
G1 X5S400
G1 X1S0
G1 X5S480
G1 X1S0
G1 X5S560
G1 X1S0
G1 X5S640
G1 X1S0
G1 X5S720
G1 X1S0
G1 X5S800
G1 Y0.1S0
G1 X-5S800
G1 X-1S0
G1 X-5S720
G1 X-1S0
G1 X-5S640
G1 X-1S0
G1 X-5S560
G1 X-1S0
G1 X-5S480
G1 X-1S0
G1 X-5S400
G1 X-1S0
G1 X-5S320
G1 X-1S0
G1 X-5S240
G1 X-1S0
G1 X-5S160
G1 X-1S0
G1 X-5S80
G1 Y0.1S0
G1 X5S80
G1 X1S0
G1 X5S160
G1 X1S0
G1 X5S240
G1 X1S0
G1 X5S320
G1 X1S0
G1 X5S400
G1 X1S0
G1 X5S480
G1 X1S0
G1 X5S560
G1 X1S0
G1 X5S640
G1 X1S0
G1 X5S720
G1 X1S0
G1 X5S800
G1 Y0.1S0
G1 X-5S800
G1 X-1S0
G1 X-5S720
G1 X-1S0
G1 X-5S640
G1 X-1S0
G1 X-5S560
G1 X-1S0
G1 X-5S480
G1 X-1S0
G1 X-5S400
G1 X-1S0
G1 X-5S320
G1 X-1S0
G1 X-5S240
G1 X-1S0
G1 X-5S160
G1 X-1S0
G1 X-5S80
G1 Y0.1S0
G1 X5S80
G1 X1S0
G1 X5S160
G1 X1S0
G1 X5S240
G1 X1S0
G1 X5S320
G1 X1S0
G1 X5S400
G1 X1S0
G1 X5S480
G1 X1S0
G1 X5S560
G1 X1S0
G1 X5S640
G1 X1S0
G1 X5S720
G1 X1S0
G1 X5S800
G1 Y0.1S0
G1 X-5S800
G1 X-1S0
G1 X-5S720
G1 X-1S0
G1 X-5S640
G1 X-1S0
G1 X-5S560
G1 X-1S0
G1 X-5S480
G1 X-1S0
G1 X-5S400
G1 X-1S0
G1 X-5S320
G1 X-1S0
G1 X-5S240
G1 X-1S0
G1 X-5S160
G1 X-1S0
G1 X-5S80
G1 Y0.1S0
G1 X5S80
G1 X1S0
G1 X5S160
G1 X1S0
G1 X5S240
G1 X1S0
G1 X5S320
G1 X1S0
G1 X5S400
G1 X1S0
G1 X5S480
G1 X1S0
G1 X5S560
G1 X1S0
G1 X5S640
G1 X1S0
G1 X5S720
G1 X1S0
G1 X5S800
G1 Y0.1S0
G1 X-5S800
G1 X-1S0
G1 X-5S720
G1 X-1S0
G1 X-5S640
G1 X-1S0
G1 X-5S560
G1 X-1S0
G1 X-5S480
G1 X-1S0
G1 X-5S400
G1 X-1S0
G1 X-5S320
G1 X-1S0
G1 X-5S240
G1 X-1S0
G1 X-5S160
G1 X-1S0
G1 X-5S80
G1 Y0.1S0
G1 X5S80
G1 X1S0
G1 X5S160
G1 X1S0
G1 X5S240
G1 X1S0
G1 X5S320
G1 X1S0
G1 X5S400
G1 X1S0
G1 X5S480
G1 X1S0
G1 X5S560
G1 X1S0
G1 X5S640
G1 X1S0
G1 X5S720
G1 X1S0
G1 X5S800
G1 Y0.1S0
G1 X-5S800
G1 X-1S0
G1 X-5S720
G1 X-1S0
G1 X-5S640
G1 X-1S0
G1 X-5S560
G1 X-1S0
G1 X-5S480
G1 X-1S0
G1 X-5S400
G1 X-1S0
G1 X-5S320
G1 X-1S0
G1 X-5S240
G1 X-1S0
G1 X-5S160
G1 X-1S0
G1 X-5S80
G1 Y0.1S0
G1 X5S80
G1 X1S0
G1 X5S160
G1 X1S0
G1 X5S240
G1 X1S0
G1 X5S320
G1 X1S0
G1 X5S400
G1 X1S0
G1 X5S480
G1 X1S0
G1 X5S560
G1 X1S0
G1 X5S640
G1 X1S0
G1 X5S720
G1 X1S0
G1 X5S800
G1 Y0.1S0
G1 X-5S800
G1 X-1S0
G1 X-5S720
G1 X-1S0
G1 X-5S640
G1 X-1S0
G1 X-5S560
G1 X-1S0
G1 X-5S480
G1 X-1S0
G1 X-5S400
G1 X-1S0
G1 X-5S320
G1 X-1S0
G1 X-5S240
G1 X-1S0
G1 X-5S160
G1 X-1S0
G1 X-5S80
G1 Y0.1S0
G1 X5S80
G1 X1S0
G1 X5S160
G1 X1S0
G1 X5S240
G1 X1S0
G1 X5S320
G1 X1S0
G1 X5S400
G1 X1S0
G1 X5S480
G1 X1S0
G1 X5S560
G1 X1S0
G1 X5S640
G1 X1S0
G1 X5S720
G1 X1S0
G1 X5S800
G1 Y0.1S0
G1 X-5S800
G1 X-1S0
G1 X-5S720
G1 X-1S0
G1 X-5S640
G1 X-1S0
G1 X-5S560
G1 X-1S0
G1 X-5S480
G1 X-1S0
G1 X-5S400
G1 X-1S0
G1 X-5S320
G1 X-1S0
G1 X-5S240
G1 X-1S0
G1 X-5S160
G1 X-1S0
G1 X-5S80
G1 Y0.1S0
G1 X5S80
G1 X1S0
G1 X5S160
G1 X1S0
G1 X5S240
G1 X1S0
G1 X5S320
G1 X1S0
G1 X5S400
G1 X1S0
G1 X5S480
G1 X1S0
G1 X5S560
G1 X1S0
G1 X5S640
G1 X1S0
G1 X5S720
G1 X1S0
G1 X5S800
G1 Y0.1S0
G1 X-5S800
G1 X-1S0
G1 X-5S720
G1 X-1S0
G1 X-5S640
G1 X-1S0
G1 X-5S560
G1 X-1S0
G1 X-5S480
G1 X-1S0
G1 X-5S400
G1 X-1S0
G1 X-5S320
G1 X-1S0
G1 X-5S240
G1 X-1S0
G1 X-5S160
G1 X-1S0
G1 X-5S80
G1 Y0.1S0
G1 X5S80
G1 X1S0
G1 X5S160
G1 X1S0
G1 X5S240
G1 X1S0
G1 X5S320
G1 X1S0
G1 X5S400
G1 X1S0
G1 X5S480
G1 X1S0
G1 X5S560
G1 X1S0
G1 X5S640
G1 X1S0
G1 X5S720
G1 X1S0
G1 X5S800
G1 Y0.1S0
G1 X-5S800
G1 X-1S0
G1 X-5S720
G1 X-1S0
G1 X-5S640
G1 X-1S0
G1 X-5S560
G1 X-1S0
G1 X-5S480
G1 X-1S0
G1 X-5S400
G1 X-1S0
G1 X-5S320
G1 X-1S0
G1 X-5S240
G1 X-1S0
G1 X-5S160
G1 X-1S0
G1 X-5S80
G1 Y0.1S0
G1 X5S80
G1 X1S0
G1 X5S160
G1 X1S0
G1 X5S240
G1 X1S0
G1 X5S320
G1 X1S0
G1 X5S400
G1 X1S0
G1 X5S480
G1 X1S0
G1 X5S560
G1 X1S0
G1 X5S640
G1 X1S0
G1 X5S720
G1 X1S0
G1 X5S800
G1 Y0.1S0
G1 X-5S800
G1 X-1S0
G1 X-5S720
G1 X-1S0
G1 X-5S640
G1 X-1S0
G1 X-5S560
G1 X-1S0
G1 X-5S480
G1 X-1S0
G1 X-5S400
G1 X-1S0
G1 X-5S320
G1 X-1S0
G1 X-5S240
G1 X-1S0
G1 X-5S160
G1 X-1S0
G1 X-5S80
G1 Y0.1S0
G1 X5S80
G1 X1S0
G1 X5S160
G1 X1S0
G1 X5S240
G1 X1S0
G1 X5S320
G1 X1S0
G1 X5S400
G1 X1S0
G1 X5S480
G1 X1S0
G1 X5S560
G1 X1S0
G1 X5S640
G1 X1S0
G1 X5S720
G1 X1S0
G1 X5S800
G1 Y0.1S0
G1 X-5S800
G1 X-1S0
G1 X-5S720
G1 X-1S0
G1 X-5S640
G1 X-1S0
G1 X-5S560
G1 X-1S0
G1 X-5S480
G1 X-1S0
G1 X-5S400
G1 X-1S0
G1 X-5S320
G1 X-1S0
G1 X-5S240
G1 X-1S0
G1 X-5S160
G1 X-1S0
G1 X-5S80
G1 Y0.1S0
G1 X5S80
G1 X1S0
G1 X5S160
G1 X1S0
G1 X5S240
G1 X1S0
G1 X5S320
G1 X1S0
G1 X5S400
G1 X1S0
G1 X5S480
G1 X1S0
G1 X5S560
G1 X1S0
G1 X5S640
G1 X1S0
G1 X5S720
G1 X1S0
G1 X5S800
G1 Y0.1S0
G1 X-5S800
G1 X-1S0
G1 X-5S720
G1 X-1S0
G1 X-5S640
G1 X-1S0
G1 X-5S560
G1 X-1S0
G1 X-5S480
G1 X-1S0
G1 X-5S400
G1 X-1S0
G1 X-5S320
G1 X-1S0
G1 X-5S240
G1 X-1S0
G1 X-5S160
G1 X-1S0
G1 X-5S80
G1 Y0.1S0
G1 X5S80
G1 X1S0
G1 X5S160
G1 X1S0
G1 X5S240
G1 X1S0
G1 X5S320
G1 X1S0
G1 X5S400
G1 X1S0
G1 X5S480
G1 X1S0
G1 X5S560
G1 X1S0
G1 X5S640
G1 X1S0
G1 X5S720
G1 X1S0
G1 X5S800
G1 Y0.1S0
G1 X-5S800
G1 X-1S0
G1 X-5S720
G1 X-1S0
G1 X-5S640
G1 X-1S0
G1 X-5S560
G1 X-1S0
G1 X-5S480
G1 X-1S0
G1 X-5S400
G1 X-1S0
G1 X-5S320
G1 X-1S0
G1 X-5S240
G1 X-1S0
G1 X-5S160
G1 X-1S0
G1 X-5S80
G1 Y0.1S0
G1 X5S80
G1 X1S0
G1 X5S160
G1 X1S0
G1 X5S240
G1 X1S0
G1 X5S320
G1 X1S0
G1 X5S400
G1 X1S0
G1 X5S480
G1 X1S0
G1 X5S560
G1 X1S0
G1 X5S640
G1 X1S0
G1 X5S720
G1 X1S0
G1 X5S800
G1 Y0.1S0
G1 X-5S800
G1 X-1S0
G1 X-5S720
G1 X-1S0
G1 X-5S640
G1 X-1S0
G1 X-5S560
G1 X-1S0
G1 X-5S480
G1 X-1S0
G1 X-5S400
G1 X-1S0
G1 X-5S320
G1 X-1S0
G1 X-5S240
G1 X-1S0
G1 X-5S160
G1 X-1S0
G1 X-5S80
G1 Y0.1S0
G1 X5S80
G1 X1S0
G1 X5S160
G1 X1S0
G1 X5S240
G1 X1S0
G1 X5S320
G1 X1S0
G1 X5S400
G1 X1S0
G1 X5S480
G1 X1S0
G1 X5S560
G1 X1S0
G1 X5S640
G1 X1S0
G1 X5S720
G1 X1S0
G1 X5S800
G1 Y0.1S0
G1 X-5S800
G1 X-1S0
G1 X-5S720
G1 X-1S0
G1 X-5S640
G1 X-1S0
G1 X-5S560
G1 X-1S0
G1 X-5S480
G1 X-1S0
G1 X-5S400
G1 X-1S0
G1 X-5S320
G1 X-1S0
G1 X-5S240
G1 X-1S0
G1 X-5S160
G1 X-1S0
G1 X-5S80
G1 Y0.1S0
G1 X5S80
G1 X1S0
G1 X5S160
G1 X1S0
G1 X5S240
G1 X1S0
G1 X5S320
G1 X1S0
G1 X5S400
G1 X1S0
G1 X5S480
G1 X1S0
G1 X5S560
G1 X1S0
G1 X5S640
G1 X1S0
G1 X5S720
G1 X1S0
G1 X5S800
G1 Y0.1S0
G1 X-5S800
G1 X-1S0
G1 X-5S720
G1 X-1S0
G1 X-5S640
G1 X-1S0
G1 X-5S560
G1 X-1S0
G1 X-5S480
G1 X-1S0
G1 X-5S400
G1 X-1S0
G1 X-5S320
G1 X-1S0
G1 X-5S240
G1 X-1S0
G1 X-5S160
G1 X-1S0
G1 X-5S80
G1 Y0.1S0
G1 X5S80
G1 X1S0
G1 X5S160
G1 X1S0
G1 X5S240
G1 X1S0
G1 X5S320
G1 X1S0
G1 X5S400
G1 X1S0
G1 X5S480
G1 X1S0
G1 X5S560
G1 X1S0
G1 X5S640
G1 X1S0
G1 X5S720
G1 X1S0
G1 X5S800
G1 Y0.1S0
G1 X-5S800
G1 X-1S0
G1 X-5S720
G1 X-1S0
G1 X-5S640
G1 X-1S0
G1 X-5S560
G1 X-1S0
G1 X-5S480
G1 X-1S0
G1 X-5S400
G1 X-1S0
G1 X-5S320
G1 X-1S0
G1 X-5S240
G1 X-1S0
G1 X-5S160
G1 X-1S0
G1 X-5S80
G1 Y0.1S0
G1 X5S80
G1 X1S0
G1 X5S160
G1 X1S0
G1 X5S240
G1 X1S0
G1 X5S320
G1 X1S0
G1 X5S400
G1 X1S0
G1 X5S480
G1 X1S0
G1 X5S560
G1 X1S0
G1 X5S640
G1 X1S0
G1 X5S720
G1 X1S0
G1 X5S800
G1 Y0.1S0
G1 X-5S800
G1 X-1S0
G1 X-5S720
G1 X-1S0
G1 X-5S640
G1 X-1S0
G1 X-5S560
G1 X-1S0
G1 X-5S480
G1 X-1S0
G1 X-5S400
G1 X-1S0
G1 X-5S320
G1 X-1S0
G1 X-5S240
G1 X-1S0
G1 X-5S160
G1 X-1S0
G1 X-5S80
G1 Y0.1S0
G1 X5S80
G1 X1S0
G1 X5S160
G1 X1S0
G1 X5S240
G1 X1S0
G1 X5S320
G1 X1S0
G1 X5S400
G1 X1S0
G1 X5S480
G1 X1S0
G1 X5S560
G1 X1S0
G1 X5S640
G1 X1S0
G1 X5S720
G1 X1S0
G1 X5S800
G1 Y0.1S0
G1 X-5S800
G1 X-1S0
G1 X-5S720
G1 X-1S0
G1 X-5S640
G1 X-1S0
G1 X-5S560
G1 X-1S0
G1 X-5S480
G1 X-1S0
G1 X-5S400
G1 X-1S0
G1 X-5S320
G1 X-1S0
G1 X-5S240
G1 X-1S0
G1 X-5S160
G1 X-1S0
G1 X-5S80
G90
M9
G1 S0
M5
G90
; return to user-defined finish pos
G0 X0 Y0
M2
